X: 5
T: The Road To Lisdoonvarna
R: reel
M: 4/4
L: 1/8
K: Dmix
DAAG ABcA|G2AG EFGE|DAAG ABcA|~B2AG FDD2| D2AG ABcA|GcAG EFGE|D2AG ABcA|BdAG FDD2|defd c~A3|B2GB c~A3|defd c~A3|~B2AG FDD2| defd c~A3|BDGB cAA2|defd c~A3|BdAG FDD2|


Tune 249	Setting 12971

